findly-builder/apps/searchassist/src/assets/icons/restore.svg

<svg width="15" height="16" viewBox="0 0 15 16" fill="none" xmlns="http://www.w3.org/2000/svg">
<path d="M1.73077 0C0.781695 0 0 0.77425 0 1.71429V12C0 12.94 0.781695 13.7143 1.73077 13.7143H3.46154V12.5714H1.73077C1.406 12.5714 1.15385 12.3217 1.15385 12V1.71429C1.15385 1.39261 1.406 1.14286 1.73077 1.14286H6.92308V4.57143H10.3846V6.85714H11.5385V3.76339L7.73888 0H1.73077ZM8.07692 1.95089L9.56881 3.42857H8.07692V1.95089ZM10.9615 8C8.93552 8 7.26547 9.49745 6.98167 11.4286H4.03846L7.5 14.8571L10.9615 11.4286H8.13552C8.40075 10.12 9.55908 9.14286 10.9615 9.14286C12.5617 9.14286 13.8462 10.415 13.8462 12C13.8462 13.585 12.5617 14.8571 10.9615 14.8571V16C13.1852 16 15 14.2025 15 12C15 9.79752 13.1852 8 10.9615 8Z" fill="#DD3646"/>
</svg>

<svg width="15" height="16" fill="none" xmlns="http://www.w3.org/2000/svg"><path d="M1.73 0C.783 0 0 .774 0 1.714V12c0 .94.782 1.714 1.73 1.714h1.732v-1.143H1.73A.567.567 0 0 1 1.154 12V1.714c0-.321.252-.571.577-.571h5.192V4.57h3.462v2.286h1.154V3.763L7.739 0H1.73Zm6.347 1.95 1.492 1.48H8.077V1.95ZM10.96 8a4.025 4.025 0 0 0-3.98 3.429H4.039L7.5 14.857l3.461-3.428H8.136a2.866 2.866 0 0 1 2.825-2.286c1.6 0 2.885 1.272 2.885 2.857a2.862 2.862 0 0 1-2.885 2.857V16C13.185 16 15 14.203 15 12c0-2.202-1.815-4-4.039-4Z" fill="#DD3646"/></svg>
